X:1
T:Concert Étude after Paganini's 4th Caprice
T:Concert Étude after Paganini's 4th Caprice
T:Op. 10, No. 4
T:Robert Schumann
C:Robert Schumann
%%score { ( 1 3 6 ) | ( 2 4 5 ) }
L:1/8
Q:1/4=40
M:2/4
K:Eb
V:1 treble nm="Piano" snm="Pno."
V:3 treble 
V:6 treble 
V:2 bass 
V:4 bass 
V:5 bass 
V:1
"^Maestoso"!p!{/C} c2-!>(! c/(G/c/d/!>)! | [ce]2-) [ce]/!>(!([Gd]/[ce]/[df]/!>)! | %2
 [eg]2-) [eg]/([df]/[ce]/[=Bd]/) | ([ce]2 [=Bd]/) [G,G]/[A,A]/[G,G]/ |!p! x2 z/ g3/2 | g2- g<g | %6
 g2-!<(! g<g!<)! |!f! g2- g/ [G,G]/[A,A]/[G,G]/ | [A,CA]/ z/ z z/ (!>![cc']/[Bb]/[Aa]/ | %9
 [Gg]2-) [Gg]/ ([G,G]/[A,A]/[G,G]/ | [^F,C^F]/) z/ z z/ ^f3/2 | x2 x/ =B3/2 | x2 x/ =B3/2 | %13
 x2 x/ c3/2 |!>(! [Cc]2 ([=D=d]/[Cc]/[Dd]/[_E_e]/)!>)! |!p! [C-DG-cd]2 [CGc] z | %16
!ff![I:staff +1] (3.[E,G,CE]/.[F,B,DF]/.[G,B,EG]/[I:staff -1] (3.[A,CFA]/.[=B,DG=B]/.[CD^F=Ac]/ (3.[D=FBd]/.[EGce]/.[F_Bdf]/ (3.[GBeg]/.[_Acf_a]/.[=Bdg=b]/ | %17
 (3.[cegc']/ z/ .[Ee]/!<(! (3.[Ff]/.[Gg]/.[=A=a]/ (3.[=B=b]/.[cc']/.[dd']/!<)! (3.[ee']/([EG]/[CE]/) | %18
!ff![I:staff +1] (3[D,G,=B,D]/[E,G,CE]/[F,_B,DF]/[I:staff -1] (3[G,B,EG]/[A,CFA]/[=B,DG=B]/ (3[CD^F=Ac]/[D=FBd]/[EGce]/ (3[F_Bdf]/[GBeg]/[_Acf_a]/ | %19
 (3[=Bdfg=b]/ z/ [Dd]/!<(! (3[Ee]/[Ff]/[Gg]/ (3[=A=a]/[=B=b]/[cc']/!<)! (3[dd']/ z/ z/ | %20
!>(! (3z/!8va(! ([_a_a']/[gg']/)!>)!!p! (3z/ ([aa']/[gg']/) (3z/ ([aa']/[gg']/) (3z/ ([aa']/[gg']/) | %21
 (3z/ ([gg']/[ff']/) (3z/ ([gg']/[ff']/)!8va)! (3([ac']/[fa]/[cf]/ (3[Ac]/[FA]/) z/ | %22
 (3z/!8va(! ([gg']/[ff']/) (3z/ ([gg']/[ff']/)!8va)! (3([ec']/[c=a]/[=Af]/ (3[Fe]/[Ec]/) z/ | %23
!p! (3z/ ([=ac']/[bd']/) (3[d'f']/([c'e']/[bd']/) (3[_ad']/([a-_c']/[ab]/) (3[ad']/([a-c']/[ab]/) | %24
 (3(b/!<(!e'/d'/ (3[ec']/[db]/!<)![c=a]/ (3[Bg]/[=Af]/!>(![_Ge]/ (3[Fc]/[EA]/[CF]/)!>)! | %25
!p! (3D/([=Ac]/[Bd]/) (3[df]/[ce]/[Bd]/ (3[_Ad]/[_CA-_c]/[B,AB]/ (3[Ad]/[CA-c]/[B,AB]/ | %26
 (3(B/e/d/ (3[E=c]/[DB]/[C=A]/ (3[B,G]/[=A,F]/[EF]/ (3[CF]/[CE]/[CE]/) | ([B,D]2 B<B) | B2 =A/AA/ | %29
 !arpeggio![E=A]2 !arpeggio!BA | !arpeggio!=A2 !arpeggio!BA | %31
{/!fermata!=A!fermata!B!fermata!c} !arpeggio!!fermata!B3 !fermata!z || %32
 [Bb]7/4([cc']/4 [Bb]7/4)([ee']/4 |{/[ee']} [Bb][Aa] [Gg].[Ff]/4.[Ee]/4.[Dd]/4.[Cc]/4) | %34
 B/=A/B/A/ B/A/B/A/ | BB"^dim."BB |"^sempre legato" E/D/E/D/ E/D/E/D/ | E/D/E/=E/ F/E/F/^F/ | %38
 G/^F/"^cresc."G/G/ A/=A/_B/B/ | B/B/B/4d/4B/4_e/4 x2 | %40
!<(! b/4[gg']/4[ff']/4[ee']/4 [dd']/4[cc']/4[Bb]/4[Aa]/4 [Gg]/4[Aa]/4[Bb]/4[cc']/4 [=d=d']/4[ee']/4[ff']/4[gg']/4!<)! | %41
!ff! TF2{=EF} Tb2{=ab} | %42
 e/ z/4 [ee']/4- [ee']/4[c'c'']/4z/4[dd']/4- [dd']/4[bb']/4z/4[cc']/4- [cc']/4[aa']/4z/4[Bb]/4- | %43
 [Bb]/4[gg']/4!>(! e/4a/4 f/4a/4d/4g/4 e/4g/4c/4f/4 _d/4f/4f/4e/4!>)! | %44
!p! (_d/4c/4)(c/4e/4) (e/4=d/4)(d/4c/4) (c/4B/4)(B/4_d/4) (d/4c/4)(c/4B/4) | %45
 (A/4B/4c/4B/4 A/A/4=A/4)!<(! .[DB]/4.[_Af]/4.[Fd]/4.[DB]/4 .[B,A]/4.[A,F]/4[F,D]/4-[F,B,-D]/4!<)! | %46
!f! [E,B,E]/ ([^f^f']/4[gg']/4 [=e=e']/4[=f=f']/4[dad']/4[_eg_e']/4 [^c^c']/4[dd']/4[=B=f=b]/4[=ce=c']/4 [=A=a]/4[_B_b]/4[G_dg]/4[_Ac_a]/4) | %47
 T=d2{^cd} [Fdb]2{=ab} |!p! [ee'] z z/ e/d/_d/ | _d2 c/(f/=e/_e/ | e2 =d/)(b/=a/_a/ | %51
 a/g/c/e/ e/B/_A/=F/) | E2 E/!>!DD/ | E2 (E/!>!FD/) | D4{G,A,} | E2 z2 :|!p! =E2- E<E | %57
 F2 A/A/G/F/ | =E4{A,B,} | F2 A/A/G/F/ | c2 e/e/_d/c/ | _d2 f/f/e/d/ | [Fc]2- [Fc]<[Fc] | %63
 [F_d]2- [Fd]/[Fd]/[E=A]/B/ |!f!{/[B,_DB]} [B_d-b]2 [d_d']/[dd']/[cc']/[Bb]/ | %65
[I:staff +1]{/[F,,F,]}[I:staff -1] [B_db]2 _d'/!>![dd']/[cc']/[Bb]/ | %66
[I:staff +1]{/[=E,,=E,]}[I:staff -1] [B_g-b]2 [g_d']/!>![_dd']/[cc']/[Bb]/ | %67
 [=Af=a]/ ([cf]/[_d_g]/) ([B=e]/[cf]/) ([_A=d]/[B_e]/) ([_Gc]/ | %68
[A_d]/) ([F=B]/[_Gc]/) ([E=A]/[F_B]/){/[B,_D_GB]} [Bdb]3/2 | %69
 [=Ac=a]/!ff! [fc'f']/[_gb_g']/ [=e=g=e']/[f=af']/ [=d_a=d']/[_eg_e']/ [c_gc']/ | %70
 [_df_d']/ [=Bf=b]/[cec']/ [=Ac=a]/[_Bd_b]/ ([Bdb]3/2 | %71
 [=Ac=a]<)([B_db] [Aca]/)!p!!>(! ([_A_a]/[_G_g]/[Ff]/!>)! | [Aea][_G_g]) z/ ([Geg]/[Ff]/[Ee]/ | %73
 [_Gc_g][F_df]) z/ ([Bb]/g/e/ | [A_d]2 [CAc]2) |!pp! _D2- D/!>(!(A,/D/E/!>)! | %76
 [_D_F]2-) [DF]/!>(!([A,E]/[DF]/[E_G]/!>)! | [_FA]2-) A/!<(!AB/!<)! |!p!!>(!!<(! A2!>)! _G<B | %79
 [E_GB]2- B<B!<)! |!mf!!<(! ^A2- A<A!<)! ||[K:B]!f! [FBd]/ x/ x x/ (.[DBf]/.[Ece]/.[DBd]/ | %82
 .[CE=Gc]/) x/ x x/ [EFe]/[EFd]/[EFc]/ | [DF=c]/ x/ x [=A,B,FB]/ [DFd]/[^CDF^c]/[B,DFB]/ | %84
 [B,EGB][Ee] [Cc]/!>![Ee]/[Cc]/!>![Ff]/ | %85
 [Dd]/!>![Ff]/[Dd]/!>![Gg]/ [Ee]/!>![=A=a]/[Ff]/!>![=B=b]/ | %86
 x/!ff! [B,B]/[Ee]/[Ff]/ [Gg]/ [Bgb]/[Bf^a]/[Beg]/ | %87
 [Bdg]/ [Dd]/[Bb]/[cc']/ [dd']/ [Bdgb]/[Ace=ga]/[Bd^g]/ ||[K:Eb] [=Bdfa]2-!p!!<(! x2!<)! | %89
 [G=Bdfg]2- [GBdfg]/[ABdfa]/[GBdfg]/[FGBdf]/ | %90
 [FGcf][Ee]"_m.d."[I:staff +1] !>![_B,,_B,]/[I:staff -1] [GBf]/[GBe]/[GBd]/ | %91
 [EAd][Cc][I:staff +1] !>![A,,A,]/[I:staff -1] [E^Fe]/[EFd]/[EFc]/ | %92
"_dim." [DG=B]2[I:staff +1] !>![D,,D,]/[I:staff -1] [E^Fe]/[Fd]/[EFc]/ | %93
 [DG=B]2[I:staff +1] !>![D,,D,]/[I:staff -1] [E^Fe]/[EFd]/[EFc]/ | %94
!p!!<(! [DG=B]/ [^f^f']/[g=bd'g']/[^c^c']/!<)!!>(! [dgbd']/[^A^a]/[Bdgb]/[Gg]/!>)! | %95
[I:staff +1] [=B,,D,G,]2[I:staff -1] !fermata!z2 ||[K:C]!p! [Gg]7/4([Aa]/4 [Gg]7/4)([cc']/4 | %97
{/[cc']} [Gg][Ff] [Ee][Dd]/4[Cc]/4[B,B]/4[A,A]/4 | G/)!p!^F/G/F/ G/F/G/[CF]/ | GGGG | %100
 C/B,/C/B,/ C/B,/C/B,/ | C/B,/C/^C/ D/C/D/^D/ | E/^D/E/E/"_cresc." F/^F/=G/G/ | %103
 G/G/ G/4B/4G/4=c/4 x2 | %104
!f! g/4!<(![ee']/4[dd']/4[cc']/4 [Bb]/4[Aa]/4[Gg]/4[Ff]/4 [Ee]/4[Ff]/4[Gg]/4[=A=a]/4 [=B=b]/4[cc']/4[dd']/4[ee']/4!<)! | %105
!ff! TD2{^CD} Tg2{^fg} | %106
 c/ z/4 [cc']/4- [cc']/4[aa']/4z/4[Bb]/4- [Bb]/4[gg']/4z/4[Aa]/4- [Aa]/4[ff']/4z/4[Gg]/4- | %107
!>(! x/ c/4f/4 d/4f/4B/4e/4 c/4e/4A/4d/4 _B/4d/4d/4c/4 | %108
 (_B/4A/4)!>)!!p!(A/4c/4) (c/4=B/4)(B/4A/4) (A/4G/4)(G/4_B/4) (B/4A/4)(A/4G/4) | %109
 (F/4G/4A/4G/4 F/F/4^F/4)!<(! .[B,G]/4.[=Fd]/4.[DB]/4.[B,G]/4[I:staff +1] .[G,F]/4.[F,D]/4[D,B,]/4-[D,G,B,]/4!<)! | %110
!f! [C,G,C]/[I:staff -1] ([^d^d']/4[ee']/4 [^c^c']/4[=d=d']/4[Bfb]/4[=ce=c']/4 [^A^a]/4[Bb]/4[^Gd^g]/4[=Ac=a]/4 [^F^f]/4[=G=g]/4[E_Be]/4[=FA=f]/4) | %111
 TB2{^AB} [Bg]2{^fg} |!p! [cc'] z z/ (g3/2 | ^g2 a<)(a | ^a2 b/)(g/^f/=f/ | %115
 f/e/"_dim."A/c/ c/G/=F/=D/ | C2) (C/!>!B,B,/ | C2) (C/!>!B,B,/ | [F,B,]4) | C2 z !fermata!z |] %120
V:2
"^sotto voce" z/!>(! (G,/C/D/!>)! E)!ped! [C,,G,,]- | %1
 [C,,G,,]/!>(! ([G,D]/!ped-up![CE]/[DF]/!>)! [EG])!ped! [C,,G,,]- | %2
 [C,,G,,]/ ([DF]/!ped-up![CE]/[=B,D]/ [CE])!ped! [C,,G,,]- | %3
 [C,,G,,]/!f! ([G,,G,]/!ped-up![A,,A,]/[G,,G,]/) [G,,G,]!ped! [C,,G,,]- | %4
 [C,,G,,]/ (G,/!ped-up!C/D/ E)!ped! [C,,G,,]- | %5
 [C,,G,,]/ ([G,D]/!ped-up![CE]/[DF]/ [EG])!ped! [C,,G,,]- | %6
 [C,,G,,]/ [DF]/!ped-up![CE]/[=B,D]/ [CE] [C,,G,,]- | %7
 [C,,G,,]/ [G,,G,]/[A,,A,]/[G,,G,]/ [G,,G,]G,, | F,,/(!>![A,C]/[G,B,]/[F,A,]/ [F,A,])F,, | %9
 E,,/(!>![G,,G,]/[A,,A,]/[G,,G,]/ [G,,G,])G,, | A,,/(!>![CE]/[B,D]/[A,C]/ [A,C])A,, | %11
 G,,/(!>![G,,G,]/[A,,A,]/[G,,G,]/ [G,,G,])F,, | x/ !>!C3/2 x2 | z/ (!>!C3/2 [D,F,])[F,,,F,,] | %14
 [G,,,G,,]/(x/[=B,,=D,]/[_B,,=E,]/ [A,,F,]) [C,,G,,]- | %15
 [C,,G,,]/[G,,G,]/[G,,G,]/[G,,G,]/ [G,,G,][G,,,G,,] | %16
 (3.[C,,C,]/.[B,,,B,,]/.[E,,E,]/"^marcatissimo" (3.[D,,D,]/[G,,,G,,]/-[G,,,G,,]/- (3.[G,,,G,,]/.[C,,C,]/.[_B,,,_B,,]/ (3.[E,,E,]/.[D,,D,]/.[G,,,G,,]/ | %17
 (3.[C,,C,]/.C,/.C/ C C C/ z/ | %18
 (3[G,,,G,,]/[C,,C,]/[_B,,,_B,,]/ (3[E,,E,]/[D,,D,]/[G,,,G,,]/- (3[G,,,G,,]/[G,,,G,,]/[C,,C,]/ (3[_B,,,_B,,]/[E,,E,]/[D,,D,]/ | %19
 (3G,,,/G,,/=B,/ G, G, G, | %20
 (3:2:2_AG/!ped! (3:2:2A,G,/!ped-up! (3:2:2AG/!ped! (3:2:2A,G,/!ped-up! | %21
 (3:2:2GF/!ped! (3:2:2G,F,/-"^dolce" (3([A,,C,E,F,]/!<(![A,,C,]/[C,E,]/ (3[E,F,]/!<)![F,A,]/[A,CF]/)!ped-up! | %22
 (3:2:2GF/!ped! (3:2:2G,F,/ (3([=A,,C,]/[C,E,]/[E,F,]/ (3[F,=A,]/[A,C]/[CE=A]/)!ped-up! | %23
[K:treble] (3[B,DB]/(_G/F/) (3B,/(G/F/) (3B,/(e/d/) (3B,/(G/F/) | %24
 (3(B/B,/=B,/ (3C/D/E/ (3=E/_E/C/[K:bass] (3=A,/F,/A,/ | %25
 (3B,/)(_G,/F,/) (3B,,/(G,/F,/) (3B,,/(E/D/) (3B,,/(E,/D,/) | %26
 (3(B,/B,,/=B,,/ (3C,/D,/E,/ (3=E,/_E,/C,/ (3=A,,/F,,/A,,/) | %27
!ped! (3B,,/B,,,/B,,/ (3B,,,/B,,/B,,,/ (3B,,/!ped-up!B,,,/B,,/ (3B,,,/B,,/B,,,/ | %28
 (3B,,/B,,,/B,,/ (3B,,,/B,,/B,,,/ (3B,,/B,,,/B,,/ (3B,,,/B,,/B,,,/ | %29
 (3B,,/B,,,/B,,/ (3B,,,/B,,/B,,,/ (3B,,/B,,,/B,,/ (3B,,,/B,,/B,,,/ | %30
 (3B,,/B,,,/B,,/ (3B,,,/B,,/B,,,/ (3B,,/B,,,/B,,/ (3B,,,/B,,/B,,,/- | %31
 !fermata![B,,,B,,]3 !fermata!z || %32
 [G,B,]/4E/4[^F,=A,]/4E/4 [G,B,]/4E/4[F,A,]/4E/4 [G,B,]/4E/4[F,A,]/4E/4 [G,B,]/4E/4[F,A,]/4E/4 | %33
 [G,B,]/4[E,G,]/4[F,A,]/4[G,B,]/4 [A,C]/4[B,D]/4[CE]/4[DF]/4 [EG]/4[DF]/4[CE]/4[B,D]/4 [A,C]/4[G,B,]/4[F,A,]/4[E,G,]/4 | %34
 [B,,F,] z/ z/4 ([C,,C,]/4 [B,,,B,,]7/4)([F,,F,]/4 | %35
{/[F,,F,]} [B,,,B,,]) (B,,/4D,/4F,/4E,/4 D,/4C,/4B,,/4A,,/4 .G,,/4.F,,/4.E,,/4.D,,/4) | %36
 G,/4B,/4_C/4A,/4 G,/4B,/4C/4A,/4 G,/4B,/4C/4A,/4 G,/4B,/4C/4A,/4 | %37
 G,/4B,/4_C/4A,/4 G,/4B,/4_D/4B,/4 =A,/4=C/4D/4B,/4 A,/4C/4E/4C/4 | %38
 D,/4G,/D,,/4- D,,/4G,,/=B,,/4- B,,/4C,/_C,/4- C,/4_B,,/B,/4- | %39
 B,/4B,,/[G,B,-]/4 B,/4B,,/[_G,B,-]/4 B,/4B,,/[E,B,]/4- [E,B,]/4B,,/[^F,B,]/4 | %40
 [B,,G,]/4E/4D/4C/4 B,/4[A,C]/4[G,^C]/4[F,D]/4 [E,E]/4[DF]/4[_DG]/4[=CA]/4[K:treble] [B,B]/4[=Ac]/4[_A=d]/4[Ge]/4 | %41
[K:bass] E2 A>A | G/4E/4=B,/4E/4 C/4E/4=A,/4D/4 _B,/4D/4G,/4C/4 _A,/4C/4=F,/4B,/4 | %43
 [E,G,]/ z/4 A/4- A/4D/4z/4G/4- G/4C/4z/4F/4- F/4B,/4 z/4 (E,/4 | %44
 A,,/).[A,C]/ .=D,,/.[^F,=A,D]/ .G,,/.[_A,_D]/ .C,,/.[=E,G,C]/ | CC B,,- B,,/>([A,,,A,,]/ | %46
 [G,,,G,,]/) x/"^smorzando" x x2 |[I:staff -1] (.c/.B/.A/.G/ .B,/.=A,/._A,/.G,/) | %48
[I:staff +1] E,/4[I:staff -1]G/4F/4E/4 B,/4E/4F/4G/4 B,/4E/4F/4G/4 B,/4E/4F/4G/4 | %49
[I:staff +1] .E,/4F/4C/4B,/4 A,/4B,/4C/4F/4 A,/4B,/4C/4F/4 =A,/4B,/4C/4F/4 | %50
 .E,/4F/4_C/4B,/4 _A,/4B,/4D/4F/4 A,/4B,/4D/4F/4 A,/4B,/4D/4F/4 | E, =A,, B,, D,/4E,/4=E,/4F,/4 | %52
 x B,, A,, D,/4E,/4=E,/4F,/4 | x B,, A,,/4A,/4F,/4E,/4 D,/4E,/4=E,/4F,/4 | x A,, A,, A,, | %55
 .E,,/4E,/4B,,/4A,,/4 G,,/4A,,/4B,,/4E,/4 E,,2 :| =E,2- E,<E, | F,2 x/ [C,,C,]3/2- | %58
 [C,,C,]/"^m.s."[I:staff -1] B/A/G/ G/[I:staff +1] ([B,,,B,,]/[A,,,A,,]/[G,,,G,,]/ | %59
 [F,,,F,,]/)F,/E,/_D,/ C,<[F,,C,] | [A,,,A,,]/[I:staff -1] __b/a/_g/ g/[I:staff +1] [A,,,A,,]3/2- | %61
 [A,,,A,,]/F,/E,/_D,/ D,<[F,,,F,,]- | [F,,,F,,]/C,/B,,/=A,,/ A,,/E,/_D,/C,/ | %63
 B,,/"^m.s."[I:staff -1] b/a/_g/ f/[I:staff +1] [F,,F,]3/2 | %64
 [_G,,_G,]/[I:staff -1] ([_GB]/[_DA]/[B,G]/ [B,G]<)[_G,B,G] | %65
 [F,B,F]/!>![B_d]/[Fc]/[_DB]/ [DB]<[F,B,F] | %66
 [B,_D_G]/!>![GB]/[DA]/[B,G]/ [B,G]/[I:staff +1] B,/C/_D/ | F/FFFF/- | F/F,F, _G,/F,/=E,/ | %69
 F,/ =A,,/B,,/ _D,/C,/ =B,,/C,/ E,/ | %70
 _D,/ =D,/E,/ _G,/F,/{/[F,,F,]}[I:staff -1] [_G,_G]/[F,F]/[=E,=E]/ |[I:staff +1] x4!ped!!ped-up! | %72
 x4 | x2 _G,2 | F2 _G,/F,/E,/A,/ | _D,,/A,,/_D,/E,/ _F,!8vb(![_D,,,A,,,]- | %76
 [D,,,A,,,]/!8vb)!([A,,E,]/[_D,_F,]/[E,_G,]/ [F,A,])!8vb(![_D,,,A,,,]- | %77
 [D,,,A,,,]/!8vb)![_D,A,]/[_F,_D]/[A,E]/ [D_F][B,,,B,,-] | %78
 [E,,B,,]/B,,/E,/F,/ [E,_G,]!8vb(![E,,,B,,,]- | %79
 [E,,,B,,,]/!8vb)![B,,F,]/[E,_G,]/[F,A,]/ [G,B,]!8vb(!(([E,,,B,,,] | %80
 [^D,,,^A,,,]/))!8vb)![^D,^A,]/[^F,^D]/[A,^E]/ [D^F][^F,,^F,] || %81
[K:B] [B,,,B,,]/ (.F,/.G,/.A,/ .B,/) x/ x | x/ F,/A,/B,/ C/ x/ x | x/ F,/B,/^C/ x2 | %84
 x2 =A,/!>![E,E]/[D,D]/!>![C,C]/ | B,/!>![F,F]/[E,E]/!>![D,D]/ C/!>![=A,=A]/[G,G]/!>![F,F]/ | %86
 [E,B,E]/ [B,,,B,,]/[E,,E,]/[F,,F,]/ [G,,G,]/ x/ x | x/ [D,,D,]/[B,,B,]/[C,C]/ [D,D]/ x/ x || %88
[K:Eb]!ped! x/!p! TG,,,3/2!ped-up!{^F,,,} G,,,/[G,D]/[G,D]/[G,D]/ | %89
 [G,D]<!p!TG,,,{^F,,,} G,,,/[G,D]/[G,D]/[G,D]/ | %90
 [G,CD]<TG,,,{^F,,,}!ped! G,,,/[G,B,F]/[G,B,E]/[G,B,D]/!ped-up! | %91
 [G,A,CD]<TG,,,{^F,,,}!ped! G,,,/[A,C]/[A,=B,]/[A,C]/!ped-up! | %92
 G,<TG,,,{^F,,,}!ped! G,,,/[A,C]/[A,=B,]/[A,C]/!ped-up! | %93
 G,<TG,,,{^F,,,}!ped! G,,,/[A,C]/[A,=B,]/[A,C]/!ped-up! | G,<!trill(!TG,,,- !trill)!G,,,2{^F,,,} | %95
 G,,,2 !fermata!z2 || %96
[K:C] ([E,G,]/4C/4[^D,^F,]/4C/4 [E,G,]/4C/4[D,F,]/4C/4 [E,G,]/4C/4[D,F,]/4C/4 [E,G,]/4C/4[D,F,]/4C/4 | %97
!<(! [E,G,]/4[C,E,]/4[D,F,]/4[E,G,]/4 [F,A,]/4[G,B,]/4[A,C]/4[B,D]/4!<)!!>(! [CE]/4[B,D]/4[A,C]/4[G,B,]/4 [F,A,]/4[E,G,]/4[D,F,]/4[C,E,]/4!>)! | %98
 [G,,D,]) z/ z/4 ([A,,,A,,]/4 [G,,,G,,]7/4)([D,,D,]/4 | %99
{/[D,,D,]} [G,,,G,,]) G,,/4B,,/4D,/4C,/4 B,,/4A,,/4G,,/4F,,/4 .E,,/4.D,,/4.C,,/4.B,,,/4 | %100
 E,/4G,/4_A,/4F,/4 E,/4G,/4A,/4F,/4 E,/4G,/4A,/4F,/4 E,/4G,/4A,/4F,/4 | %101
 E,/4G,/4_A,/4F,/4 E,/4G,/4_B,/4G,/4 ^F,/4=A,/4B,/4G,/4 F,/4A,/4=C/4A,/4 | %102
 B,,/4E,/B,,,/4- B,,,/4E,,/^G,,/4- G,,/4A,,/_A,,/4- A,,/4=G,,/G,/4- | %103
 G,/4G,,/[E,G,-]/4 G,/4G,,/[_E,G,-]/4 G,/4G,,/[C,G,]/4- [C,G,]/4G,,/[^D,G,]/4 | %104
 [G,,E,]/4C/4B,/4A,/4 G,/4A,/4^A,/4B,/4 C/4D/4E/4F/4[K:treble] [G,G]/4[^FA]/4[=F=B]/4[Ec]/4 | %105
[K:bass] C2 F>F | E/4C/4^G,/4C/4 A,/4C/4^F,/4B,/4 =G,/4B,/4E,/4A,/4 =F,/4A,/4D,/4G,/4 | %107
 [C,E,]/ z/4 F/4- F/4B,/4z/4E/4- E/4A,/4z/4D/4- D/4G,/4 z/4 (C,/4 | %108
 F,,/).[F,A,]/ .B,,,/.[^D,^F,B,]/ .E,,/.[=F,_B,]/ .A,,,/.[^C,E,A,]/ | A,A, x2 | %110
 [E,,,E,,]/ x/ x"^smorzando" x2 |[I:staff -1] [G,D]2[I:staff +1] .G,/.^F,/.=F,/.E,/ | x G,G,G, | %113
 x F,F,^F, | x =F,F,F, | x ^F,, G,,/4E,/4=D,/4C,/4 B,,/4C,/4^C,/4D,/4 | %116
 .C,,/4E,/4D,/4C,/4 G,,/4C,/4D,/4E,/4 F,,/4F,/4D,/4C,/4 B,,/4C,/4^C,/4D,/4 | %117
 .C,,/4E,/4D,/4C,/4 G,,/4C,/4D,/4E,/4 F,,/4F,/4D,/4C,/4 B,,/4C,/4^C,/4D,/4 | %118
 .C,,/4D,/4_A,,/4G,,/4 F,,/4G,,/4A,,/4D,/4 F,,/4G,,/4A,,/4D,/4 F,,/4G,,/4A,,/4D,/4 | %119
 .C,,/4(C,/4G,,/4F,,/4 E,,/4F,,/4G,,/4C,/4 C,,,) !fermata!z |] %120
V:3
 x4 | x4 | x4 | x2 x/ =B,3/2 |{/C} c2- c/G/c/d/ | [ce]2- [ce]/([Gd]/[ce]/[df]/ | %6
 e2-) e/[df]/[ce]/[=Bd]/ | [ce]2 [=Bd]/ =B,3/2 | x/ x/ x x/ f3/2 | x2 x/ C3/2 | %10
 x/ x/ x x/ (!>![ee']/[dd']/[cc']/ | [cg-c']2 [=Bg=b]/) ([Gg]/[Aa]/[Gg]/ | %12
 [Gcg]2 [cc']/) (!>![Gg]/[Aa]/[Gg]/ | [Gcg]2 [cc']/) (!>![Aa]/[Ff]/[_D_d]/) | x2 x/ !>!G3/2 | x4 | %16
 x4 | x (3.D/.E/.F/ (3.G/.[^F=A]/.[=F=B]/ (3.[Ec]/ x/ x/ | x4 | %19
 x (3C/D/E/ (3F/G/^F/ (3([=F=B]/[DF]/[=B,D]/) | x/3!8va(! x11/3 | x2!8va)! x2 | %22
 x/3!8va(! x5/3!8va)! x2 | x4 | (3:2:2gf/ x x2 | x4 | (3:2:2GF/ x x2 | %27
 x2 z/ !arpeggio![B,D]/!arpeggio![=A,CE]/!arpeggio![_A,DF]/ | %28
 !arpeggio![G,EG]2 !arpeggio![F,E_G]/!arpeggio![CEG]/!arpeggio![DF]/!arpeggio![F,CE]/ | %29
 [F,C]2 [F,D]T[F,E]{DE} | [F,E]2 [B,D]T[F,E]{DE} | [B,D]3 x || x4 | x4 | %34
 D/4F/4E/4_G/4 D/4F/4E/4G/4 D/4F/4E/4G/4 D/4F/4E/4G/4 | %35
 E/4D/4F/4E/4 D/4F/4_A/4G/4 F/4E/4D/4C/4 .B,/4[I:staff +1].A,/4.G,/4.F,/4 | x4 | x4 | %38
[I:staff -1] =B,/4D/4E/4C/4 B,/4D/4^F/4D/4 C/4E/4F/4E/4 D/4F/4_A/4F/4 | %39
 E/4G/4=E/4G/4 F/_G/ [=Ac-]/4[ce]/4[ce-]/4[e^f]/4!f! [ef-]/4[f=a]/4[fa-]/4[ac']/4 | x4 | %41
 x2 (f/d/B/) z/ | x4 | x/ c/c/=B/ c/=A/_B/G/ | _A/G/^F/=A/ G/=F/=E/G/ | FF/4G/4F/4_E/4 x2 | %46
 x/ d/4e/4 ^c/4d/4=B/4=c/4 =A/4_B/4G/4_A/4 ^F/4G/4=E/4=F/4 | [B,F]2 Tx2 | x B, B, B, | B2 c<c | %50
 B2- B<d | e^F GB, | B,2 _C/C/B,/A,/ | G,2 _C/C/B,/A,/ | TA,4 | G,2 x2 :| B,2 _D/D/C/B,/ | %57
 A,2- [A,C]<[A,C] | TB,4 | A,2- A,<A, | [C_G]2- [CG]<[CG] | [_DF]2- [DF]/[DA]/[C=A]/[B,B]/ | %62
 =A,2 C/C/B,/!<(!A,/ | B,2!<)! _D/D/C/[B,D]/ | x2 x/ _g3/2 | x2 x/ f3/2 | x2 x/ _g3/2 | x4 | x4 | %69
 x4 | x4 | [F,F]/ [_G,_G]/[F,F]/[=E,=E]/ [F,F]/ [=D_c]3/2 | [EB-]>_D [CB]<[CA] | %73
 [_DA]>=D- D/E/_G/B/ | x4 | x4 | x4 | x2 F/E/=D | E2- E/B,/E/F/ | x2 [EG]/[B,F]/[E_G]/[FA]/ | %80
 ^F2 F/^E/=E/^C/ ||[K:B] x4 | x4 | x4 | x4 | x4 | [Gg]/ x/ x x/ [B,G]/[B,F^A]/[B,EG]/ | %87
 [B,DG]/ x/ x x/ [B,DG]/[B,CE=G]/[B,D^G]/ || %88
[K:Eb] [=B,DFA]/ x/ x [Bdfa]/.[A=Bdfa]/!>(!.[ABdfa]/.[ABdfa]/!>)! | x4 | x4 | x4 | x4 | x4 | x4 | %95
 x4 ||[K:C] x4 | x4 | B,/4D/4C/4_E/4 B,/4D/4C/4E/4 B,/4D/4C/4E/4 B,/4D/4C/4E/4 | %99
 C/4B,/4D/4C/4 B,/4D/4"^dim."F/4E/4 D/4C/4B,/4A,/4[I:staff +1] .G,/4.F,/4.E,/4.D,/4 | x4 | x4 | %102
 ^G,/4B,/4C/4A,/4 G,/4B,/4=D/4B,/4[I:staff -1] A,/4C/4=D/4C/4 B,/4D/4=F/4D/4 | %103
 C/4E/4^C/4E/4 D/_E/ [^FA-]/4[Ac]/4[Ac-]/4[c^d]/4 [cd-]/4[d^f]/4[df-]/4[fa]/4 | x4 | %105
 x2 (d/B/G/) z/ | x4 | [Gg]/4[ee']/4 A/A/^G/ A/^F/=G/E/ | =F/E/^D/^F/ E/=D/^C/E/ | %109
 DD/4E/4D/4C/4 x2 | x/ B/4c/4 ^A/4B/4^G/4=A/4 ^F/4=G/4E/4=F/4 ^D/4E/4^C/4=D/4 | %111
 =A/.G/.F/.E/[I:staff +1] D2 |[I:staff -1] x x x/ c/B/_B/ | _B2 A/d/^c/=c/ | c2 B<B | c^D EG, | %116
 G,2 _A,/A,/G,/F,/ | E,2 _A,/A,/G,/F,/ | Tx4 | E,2 x x |] %120
V:4
 x4 | x4 | x4 | x4 | x4 | x4 | x4 | x2 x C,,- | C,, x x C,,- | C,, x x C,,- | C,, x x C,,- | %11
 C,, x x C,,- | C,, x x2 | [C,,E,,]/[E,G,]/[F,A,]/[E,G,]/ x2 | x/ C,3/2- C, x | x4 | x4 | x4 | x4 | %19
 x4 | [CE] [C,E,] [B,E] [B,,E,] | [A,CE] [A,,C,E,]- x2 | [=A,CE] [=A,,C,] x2 |[K:treble] x4 | %24
 x _B, B,[K:bass] B,, | B,, x x2 | x _B,,B,, B,,, | x4 | x4 | x4 | x4 | x4 || E,2 E,2 | x4 | x4 | %35
 x4 | E,,/ z/4 B,,,/4- B,,,/4E,,/B,,/4- B,,/4E,/B,,,/4- B,,,/4E,,/B,,/4- | %37
 B,,/4E,/B,,,/4- B,,,/4E,,/=C,/4- C,/4F,/C,,/4- C,,/4F,,/=D,/4- | x4 | x4 | x3[K:treble] x | %41
[K:bass] (B,/=A,/_A,/G,/ [F,B,D]2) | E,/(G,/A,/)(^F,/ G,/)(=E,/F,/)D,/ | x4 | x4 | %45
 F,/4G,/4A,/4G,/4 F,/4_E,/4D,/4C,/4 x2 | x4 | x4 | x4 | x4 | x4 | %51
 E,/4=C/4B,/4G,/4 =A,,/4E,/4F,/4^F,/4 B,,/4G,/4=F,/4E,/4 B,, | %52
 E,,/4G,/4F,/4E,/4 B,,/4E,/4F,/4G,/4 A,,/4A,/4F,/4E,/4 B,, | %53
 E,,/4G,/4F,/4E,/4 B,,/4E,/4F,/4G,/4 A,,B,, | %54
 E,,/4F,/4_C,/4B,,/4 A,,/4"^dim."B,,/4C,/4F,/4 A,,/4B,,/4C,/4F,/4 A,,/4B,,/4C,/4F,/4 | x4 :| %56
 [C,,C,]/"^m.s."[I:staff -1] _d/c/B/ B/[I:staff +1] [C,,C,]3/2- | %57
 [C,,C,]/"^m.s."[I:staff -1] f/e/_d/ c/[I:staff +1] x/ x | x4 | x4 | x4 | x4 | x2 x/ F,,3/2- | %63
 F,,/ x/ x x2 | x4 | x4 | x2 x/ [_G,_G]3/2 | [F,C]/ =A,/B,/ =G,/=A,/ F,/_G,/ _E,/ | %68
F,/ =D,/E,/ C,/_D,/ F,,3/2- | F,,/F,,F,,F,,F,,/- | F,,/F,,F,, x/ x | x4 | x4 | x4 | %74
 A,/!>(!=G,/B,/A,/ A,,2!>)! | x3!8vb(! x | x/!8vb)! x5/2!8vb(! x | x/!8vb)! x7/2 | x3!8vb(! x | %79
 x/!8vb)! x5/2!8vb(! x | x/!8vb)! x7/2 || %81
[K:B] x/ [F,,,F,,]/[G,,,G,,]/[A,,,A,,]/ [B,,,B,,]/ [B,,F,B,]/[A,,F,C]/[B,,F,B,]/ | %82
 [F,,C,A,]/ [F,,,F,,]/[A,,,A,,]/[B,,,B,,]/ [C,,C,]/ [A,,E,F,C]/[A,,E,F,C]/[A,,E,F,C]/ | %83
 [=A,,D,F,=C]/ [F,,,F,,]/[B,,,B,,]/[^C,,^C,]/ [D,,D,]/ [=A,,D,F,B,]/[A,,=C,F,=A,]/[A,,B,,F,]/ | %84
 [G,,G,]/[B,,B,]/[=A,,=A,]/[G,,G,]/ A,,/ x/ ^A,,/ x/ | B,,/ x/ ^B,,/ x/ C,/ x/ D,/ x/ | x4 | x4 || %88
[K:Eb] x4 | x4 | x4 | x4 | x4 | x4 | x4 | x4 ||[K:C] C,2 C,2 | x4 | x4 | x4 | %100
 C,,/ z/4 G,,,/4- G,,,/4C,,/G,,/4- G,,/4C,/G,,,/4- G,,,/4C,,/G,,/4- | %101
 G,,/4C,/G,,,/4- G,,,/4C,,/=A,,/4- A,,/4D,/A,,,/4- A,,,/4D,,/=B,,/4- | x4 | x4 | %104
 x G,/4F,/4E,/4D,/4 C,/4B,/4_B,/4=A,/4[K:treble] x |[K:bass] (G,/^F,/=F,/E,/ [D,G,B,]2) | %106
 C,/(E,/F,/)(^D,/ E,/)(^C,/=D,/)B,,/ | x4 | x4 | %109
 D,/4E,/4F,/4E,/4 D,/4=C,/4B,,/4A,,/4 G,,-G,,/>[F,,,F,,]/ | x4 | x4 | %112
 .C,/4E/4D/4C/4 G,/4C/4D/4E/4 G,/4C/4D/4E/4 G,/4C/4D/4E/4 | %113
 .C,/4D/4A,/4=G,/4 F,/4G,/4A,/4D/4 F,/4G,/4A,/4D/4 ^F,/4G,/4A,/4D/4 | %114
 .C,/4D/4_A,/4G,/4 F,/4G,/4B,/4D/4 F,/4G,/4B,/4D/4 F,/4G,/4B,/4D/4 | %115
 C,/4A,/4G,/4E,/4 ^F,,/4C,/4D,/4^D,/4 G,,G,, | x G,,F,,G,, | x G,,F,,G,, | x F,,F,,F,, | x4 |] %120
V:5
 x4 | x4 | x4 | x4 | x4 | x4 | x4 | x4 | x4 | x4 | x4 | x4 | %12
 E,,/[E,G,]/[F,A,]/[E,G,]/ [D,F,][C,,-F,,] | x4 | x4 | x4 | x4 | x4 | x4 | x4 | x4 | x4 | x4 | %23
[K:treble] x4 | x3[K:bass] x | x4 | x4 | x4 | x4 | x4 | x4 | x4 || x4 | x4 | x4 | x4 | x4 | x4 | %38
 x4 | x4 | x3[K:treble] x |[K:bass] x4 | x4 | x4 | x4 | x4 | x4 | x4 | x4 | x4 | x4 | x4 | x4 | %53
 x4 | x4 | x4 :| x4 | x4 | x4 | x4 | x4 | x4 | x4 | x4 | x4 | x4 | x4 | x4 | x4 | x4 | x4 | x4 | %72
 x4 | x4 | x4 | x3!8vb(! x | x/!8vb)! x5/2!8vb(! x | x/!8vb)! x7/2 | x3!8vb(! x | %79
 x/!8vb)! x5/2!8vb(! x | x/!8vb)! x7/2 ||[K:B] x4 | x4 | x4 | x4 | x4 | x4 | x4 ||[K:Eb] x4 | x4 | %90
 x4 | x4 | x4 | x4 | x4 | x4 ||[K:C] x4 | x4 | x4 | x4 | x4 | x4 | x4 | x4 | x3[K:treble] x | %105
[K:bass] x4 | x4 | x4 | x4 | x4 | x4 | x4 | x4 | x4 | x4 | x4 | x4 | x4 | x4 | x4 |] %120
V:6
 x4 | x4 | x4 | x4 | x4 | x4 | x4 | x4 | x4 | x4 | x4 | x4 | x4 | x4 | x4 | x4 | x4 | x4 | x4 | %19
 x4 | x/3!8va(! x11/3 | x2!8va)! x2 | x/3!8va(! x5/3!8va)! x2 | x4 | x4 | x4 | x4 | x4 | x4 | %29
 x2 x Tx | x2 x Tx | x4 || x4 | x4 | x2 x x/ E/ | x4 | x4 | x4 | x4 | x4 | x4 | x4 | x4 | x4 | x4 | %45
 x4 | x4 | x4 | x2 x/ B3/2- | x[I:staff +1] A, A, =A, |[I:staff -1] x[I:staff +1] A, A, A, | x4 | %52
 x4 | x4 | x4 | x4 :| x4 | x4 | x4 | x4 | x4 | x4 | x4 | x4 | x4 | x4 | x4 | x4 | x4 | x4 | x4 | %71
 x4 | x4 | x4 | x4 | x4 | x4 | x4 | x4 | x4 | x4 ||[K:B] x4 | x4 | x4 | x4 | x4 | x4 | x4 || %88
[K:Eb] x4 | x4 | x4 | x4 | x4 | x4 | x4 | x4 ||[K:C] x4 | x4 | x4 | x4 | x4 | x4 | x4 | x4 | x4 | %105
 x4 | x4 | x4 | x4 | x4 | x4 |[I:staff -1] x2 Tx2 | x4 | x4 | x4 | x4 | x4 | x4 | x4 | x4 |] %120

